X:1
T: Jump At The Sun
C: John Kirkpatrick
Z: Mal
S: https://thesession.org/tunes/736#setting42699
R: jig
M: 6/8
L: 1/8
K: Dmin
|:DFA ^G2 A|DFA ^G2 A|dAA dAA|AGF E2 F|
DFA ^G2 A|DFA ^G2 A|dAA BAG|FGE D3:|
|:dAA fed|eAA gfe|fed fed|e2 A A2 ^c|
dAA fed|eAA gfe|fed cBA|GFE D3:|

